src/actions/16/curve-connector.svg

<svg xmlns="http://www.w3.org/2000/svg" viewBox="0 0 16 16">
  <defs id="defs3051">
    <style type="text/css" id="current-color-scheme">
      .ColorScheme-Text {
        color:#2e3440;
      }
      .ColorScheme-Highlight {
        color:#88c0d0;
      }
      </style>
  </defs>
  <path 
        style="fill:currentColor;fill-opacity:1;stroke:none"
        d="M 4.5 4.0058594 A 2.4999938 2.5000125 0 0 0 2 6.5058594 A 2.4999938 2.5000125 0 0 0 4.5 9.0058594 L 11.5 9.0058594 A 1.4999963 1.5000075 0 0 1 13 10.505859 A 1.4999963 1.5000075 0 0 1 11.5 12.005859 L 4 12.005859 L 4 13.005859 L 11.5 13.005859 A 2.4999938 2.5000125 0 0 0 14 10.505859 A 2.4999938 2.5000125 0 0 0 11.5 8.0058594 L 4.5 8.0058594 A 1.4999963 1.5000075 0 0 1 3 6.5058594 A 1.4999963 1.5000075 0 0 1 4.5 5.0058594 L 12 5.0058594 L 12 4.0058594 L 4.5 4.0058594 z "
        class="ColorScheme-Text"
        />
  <path 
        style="fill:currentColor;fill-opacity:1;stroke:none"
        d="M 12.5 3.0019531 A 1.5 1.5 0 0 0 11 4.5019531 A 1.5 1.5 0 0 0 12.5 6.0019531 A 1.5 1.5 0 0 0 14 4.5019531 A 1.5 1.5 0 0 0 12.5 3.0019531 z M 12.5 4.0019531 A 0.50000025 0.500001 0 0 1 13 4.5019531 A 0.50000025 0.500001 0 0 1 12.5 5.0019531 A 0.50000025 0.500001 0 0 1 12 4.5019531 A 0.50000025 0.500001 0 0 1 12.5 4.0019531 z M 3.5 11.001953 A 1.5 1.5 0 0 0 2 12.501953 A 1.5 1.5 0 0 0 3.5 14.001953 A 1.5 1.5 0 0 0 5 12.501953 A 1.5 1.5 0 0 0 3.5 11.001953 z M 3.5 12.001953 A 0.50000025 0.500001 0 0 1 4 12.501953 A 0.50000025 0.500001 0 0 1 3.5 13.001953 A 0.50000025 0.500001 0 0 1 3 12.501953 A 0.50000025 0.500001 0 0 1 3.5 12.001953 z "
        class="ColorScheme-Highlight"
        />
</svg>

<svg viewBox="0 0 16 16" xmlns="http://www.w3.org/2000/svg">
 <defs>
  <style type="text/css">.ColorScheme-Text {
        color:#2e3440;
      }
      .ColorScheme-Highlight {
        color:#88c0d0;
      }</style>
 </defs>
 <path class="ColorScheme-Text" d="m4.5 4.0059a2.5 2.5 0 0 0-2.5 2.5 2.5 2.5 0 0 0 2.5 2.5h7a1.5 1.5 0 0 1 1.5 1.5 1.5 1.5 0 0 1-1.5 1.5h-7.5v1h7.5a2.5 2.5 0 0 0 2.5-2.5 2.5 2.5 0 0 0-2.5-2.5h-7a1.5 1.5 0 0 1-1.5-1.5 1.5 1.5 0 0 1 1.5-1.5h7.5v-1h-7.5z" fill="currentColor"/>
 <path class="ColorScheme-Highlight" d="m12.5 3.002a1.5 1.5 0 0 0-1.5 1.5 1.5 1.5 0 0 0 1.5 1.5 1.5 1.5 0 0 0 1.5-1.5 1.5 1.5 0 0 0-1.5-1.5zm0 1a0.5 0.5 0 0 1 0.5 0.5 0.5 0.5 0 0 1-0.5 0.5 0.5 0.5 0 0 1-0.5-0.5 0.5 0.5 0 0 1 0.5-0.5zm-9 7a1.5 1.5 0 0 0-1.5 1.5 1.5 1.5 0 0 0 1.5 1.5 1.5 1.5 0 0 0 1.5-1.5 1.5 1.5 0 0 0-1.5-1.5zm0 1a0.5 0.5 0 0 1 0.5 0.5 0.5 0.5 0 0 1-0.5 0.5 0.5 0.5 0 0 1-0.5-0.5 0.5 0.5 0 0 1 0.5-0.5z" fill="currentColor"/>
</svg>
